loopring.svg

<svg width="84" height="26" viewBox="0 0 84 26" fill="none" xmlns="http://www.w3.org/2000/svg">
<path d="M33.4429 12.6493V25.3356H38.282V23.5959H35.4908V12.6493H33.4429ZM83.6648 17.1801V15.078C83.6648 13.5374 82.6318 12.5404 80.765 12.5404C78.8984 12.5404 77.8654 13.5553 77.8654 15.078V22.9071C77.8654 24.4294 78.8984 25.4447 80.765 25.4447C82.6318 25.4447 83.6648 24.4477 83.6648 22.9071V19.0107H80.8013V20.7504H81.6713V22.9071C81.6713 23.3966 81.2908 23.6502 80.765 23.6502C80.2032 23.6502 79.9316 23.3966 79.9316 22.9071V15.078C79.7864 14.0811 81.7255 14.1173 81.6713 15.078V17.1801H83.6648ZM74.6392 16.3826C74.6392 17.3615 74.6576 18.4306 74.6934 19.5903L72.8087 12.6492H70.5797V25.3358H72.4463V21.6023C72.4463 20.5693 72.4281 19.4636 72.3921 18.2674L74.3312 25.3358H76.5062V12.6492H74.6392V16.3826ZM67.0455 25.3357H69.0934V12.6494H67.0455V25.3357ZM63.6618 17.9955C63.6618 18.485 63.4082 18.7387 62.9189 18.7387H61.9946V14.389H62.9189C63.4082 14.389 63.6618 14.6428 63.6618 15.1322V17.9955ZM65.7101 17.9955V15.1322C65.7101 13.5915 64.7496 12.6493 62.9189 12.6493H59.9467V25.3357H61.9946V20.4788H62.6294L63.9239 25.3357H65.972L64.5796 20.1126C65.3249 19.7037 65.7101 18.9696 65.7101 17.9955ZM56.8773 17.9955C56.8773 18.485 56.6237 18.7387 56.1343 18.7387H55.2101V14.389H56.1343C56.6237 14.389 56.8773 14.6428 56.8773 15.1322V17.9955ZM56.1343 12.6493H53.1622V25.3357H55.2101V20.4788H56.1343C57.9651 20.4788 58.9256 19.536 58.9256 17.9955V15.1322C58.9256 13.5915 57.9651 12.6493 56.1343 12.6493ZM49.7546 22.907C49.8632 23.886 47.942 23.886 48.0691 22.907V15.0779C47.942 14.0991 49.8632 14.0991 49.7546 15.0779V22.907ZM48.9025 12.5405C47.0359 12.5405 46.0029 13.5552 46.0029 15.0779V22.907C46.0029 24.4295 47.0359 25.4446 48.9025 25.4446C50.7693 25.4446 51.8025 24.4477 51.8025 22.907V15.0779C51.8025 13.5373 50.7693 12.5405 48.9025 12.5405ZM42.7405 22.907C42.8491 23.886 40.9281 23.886 41.0552 22.907V15.0779C40.9281 14.0991 42.8491 14.0991 42.7405 15.0779V22.907ZM41.8886 12.5405C40.0219 12.5405 38.9889 13.5552 38.9889 15.0779V22.907C38.9889 24.4295 40.0219 25.4446 41.8886 25.4446C43.7552 25.4446 44.7886 24.4477 44.7886 22.907V15.0779C44.7886 13.5373 43.7552 12.5405 41.8886 12.5405Z" fill="white"/>
<path fill-rule="evenodd" clip-rule="evenodd" d="M18.4109 12.638H31.5659V12.7174L11.0195 25.2504L21.2161 17.099L18.4109 12.638ZM10.7385 0.555199V25.4159L0.334961 17.0989L10.7385 0.555199Z" fill="white"/>
<path d="M33.4429 12.6493V25.3356H38.282V23.5959H35.4908V12.6493H33.4429ZM83.6648 17.1801V15.078C83.6648 13.5374 82.6318 12.5404 80.765 12.5404C78.8984 12.5404 77.8654 13.5553 77.8654 15.078V22.9071C77.8654 24.4294 78.8984 25.4447 80.765 25.4447C82.6318 25.4447 83.6648 24.4477 83.6648 22.9071V19.0107H80.8013V20.7504H81.6713V22.9071C81.6713 23.3966 81.2908 23.6502 80.765 23.6502C80.2032 23.6502 79.9316 23.3966 79.9316 22.9071V15.078C79.7864 14.0811 81.7255 14.1173 81.6713 15.078V17.1801H83.6648ZM74.6392 16.3826C74.6392 17.3615 74.6576 18.4306 74.6934 19.5903L72.8087 12.6492H70.5797V25.3358H72.4463V21.6023C72.4463 20.5693 72.4281 19.4636 72.3921 18.2674L74.3312 25.3358H76.5062V12.6492H74.6392V16.3826ZM67.0455 25.3357H69.0934V12.6494H67.0455V25.3357ZM63.6618 17.9955C63.6618 18.485 63.4082 18.7387 62.9189 18.7387H61.9946V14.389H62.9189C63.4082 14.389 63.6618 14.6428 63.6618 15.1322V17.9955ZM65.7101 17.9955V15.1322C65.7101 13.5915 64.7496 12.6493 62.9189 12.6493H59.9467V25.3357H61.9946V20.4788H62.6294L63.9239 25.3357H65.972L64.5796 20.1126C65.3249 19.7037 65.7101 18.9696 65.7101 17.9955ZM56.8773 17.9955C56.8773 18.485 56.6237 18.7387 56.1343 18.7387H55.2101V14.389H56.1343C56.6237 14.389 56.8773 14.6428 56.8773 15.1322V17.9955ZM56.1343 12.6493H53.1622V25.3357H55.2101V20.4788H56.1343C57.9651 20.4788 58.9256 19.536 58.9256 17.9955V15.1322C58.9256 13.5915 57.9651 12.6493 56.1343 12.6493ZM49.7546 22.907C49.8632 23.886 47.942 23.886 48.0691 22.907V15.0779C47.942 14.0991 49.8632 14.0991 49.7546 15.0779V22.907ZM48.9025 12.5405C47.0359 12.5405 46.0029 13.5552 46.0029 15.0779V22.907C46.0029 24.4295 47.0359 25.4446 48.9025 25.4446C50.7693 25.4446 51.8025 24.4477 51.8025 22.907V15.0779C51.8025 13.5373 50.7693 12.5405 48.9025 12.5405ZM42.7405 22.907C42.8491 23.886 40.9281 23.886 41.0552 22.907V15.0779C40.9281 14.0991 42.8491 14.0991 42.7405 15.0779V22.907ZM41.8886 12.5405C40.0219 12.5405 38.9889 13.5552 38.9889 15.0779V22.907C38.9889 24.4295 40.0219 25.4446 41.8886 25.4446C43.7552 25.4446 44.7886 24.4477 44.7886 22.907V15.0779C44.7886 13.5373 43.7552 12.5405 41.8886 12.5405Z" fill="white"/>
</svg>

<svg xmlns="http://www.w3.org/2000/svg" xmlns:xlink="http://www.w3.org/1999/xlink" width="84" height="26" fill="none"><g fill="#000"><use xlink:href="#B"/><path fill-rule="evenodd" d="M18.411 12.638h13.155v.079L11.02 25.25l10.197-8.151-2.805-4.461zM10.739.555v24.861L.335 17.099 10.739.555z"/><use xlink:href="#B"/></g><defs ><path id="B" d="M33.443 12.649v12.686h4.839v-1.74h-2.791V12.649h-2.048zm50.222 4.531v-2.102c0-1.541-1.033-2.538-2.9-2.538s-2.9 1.015-2.9 2.538v7.829c0 1.522 1.033 2.538 2.9 2.538s2.9-.997 2.9-2.538v-3.896h-2.864v1.74h.87v2.157c0 .489-.38.743-.906.743-.562 0-.833-.254-.833-.743v-7.829c-.145-.997 1.794-.961 1.74 0v2.102h1.993zm-9.026-.797l.054 3.208-1.885-6.941H70.58v12.687h1.867v-3.733l-.054-3.335 1.939 7.068h2.175V12.649h-1.867v3.733zm-7.594 8.953h2.048V12.649h-2.048v12.686zm-3.384-7.34c0 .489-.254.743-.743.743h-.924v-4.35h.924c.489 0 .743.254.743.743v2.863zm2.048 0v-2.863c0-1.541-.96-2.483-2.791-2.483h-2.972v12.686h2.048v-4.857h.635l1.295 4.857h2.048l-1.392-5.223c.745-.409 1.13-1.143 1.13-2.117zm-8.833 0c0 .489-.254.743-.743.743h-.924v-4.35h.924c.489 0 .743.254.743.743v2.863zm-.743-5.346h-2.972v12.686h2.048v-4.857h.924c1.831 0 2.791-.943 2.791-2.483v-2.863c0-1.541-.961-2.483-2.791-2.483zm-6.38 10.258c.109.979-1.813.979-1.686 0v-7.829c-.127-.979 1.794-.979 1.686 0v7.829zm-.852-10.366c-1.867 0-2.9 1.015-2.9 2.537v7.829c0 1.523 1.033 2.538 2.9 2.538s2.9-.997 2.9-2.538v-7.829c0-1.541-1.033-2.537-2.9-2.537zm-6.162 10.367c.109.979-1.812.979-1.685 0v-7.829c-.127-.979 1.794-.979 1.685 0v7.829zm-.852-10.366c-1.867 0-2.9 1.015-2.9 2.537v7.829c0 1.523 1.033 2.538 2.9 2.538s2.9-.997 2.9-2.538v-7.829c0-1.541-1.033-2.537-2.9-2.537z"/></defs></svg>
